brandFactory_export/1.Light/Carpeta encriptada_1Light.svg

<?xml version="1.0" encoding="UTF-8"?>
<svg width="24px" height="24px" viewBox="0 0 24 24" version="1.1" xmlns="http://www.w3.org/2000/svg" xmlns:xlink="http://www.w3.org/1999/xlink">
    <title>1.Light/Carpeta encriptada_1Light</title>
    <g id="Symbols" stroke="none" stroke-width="1" fill="none" fill-rule="evenodd">
        <g id="1.Light/Carpeta-encriptada_1Light" fill="#5CB615" fill-rule="nonzero">
            <path d="M10.2890756,0.0201680672 C11.1193277,0.0201680672 11.794958,0.699159664 11.794958,1.53613445 L11.794958,2.73613445 L12.0848101,2.73522353 C13.7589916,2.73277311 22.1176471,2.73277311 22.1176471,2.73277311 C22.9478992,2.73277311 23.6235294,3.41176471 23.6235294,4.2487395 L23.6235294,18.1882353 C23.6235294,19.0252101 22.9478992,19.7042017 22.1176471,19.7042017 L1.5092437,19.7042017 C0.675630252,19.7042017 2.19149143e-10,19.0252101 2.19149143e-10,18.1882353 L2.19149143e-10,1.53613445 C2.19149143e-10,0.699159664 0.675630252,0.0201680672 1.5092437,0.0201680672 L10.2890756,0.0201680672 Z M10.292437,1.00840336 L1.5092437,1.00840336 C1.22016807,1.00840336 0.98487395,1.24369748 0.98487395,1.53613445 L0.98487395,18.1915966 C0.98487395,18.4806723 1.22016807,18.7159664 1.5092437,18.7159664 L22.1176471,18.7159664 C22.4033613,18.7159664 22.6386555,18.4773109 22.6386555,18.1882353 L22.6386555,4.2487395 C22.6386555,3.95966387 22.4067227,3.72436975 22.1176471,3.72436975 L11.3042017,3.72436975 C11.0319328,3.72436975 10.810084,3.50252101 10.8134454,3.2302521 L10.8134454,1.53613445 C10.8134454,1.24705882 10.5815126,1.01176471 10.292437,1.00840336 Z M7.96302521,12.497479 C9.05882353,12.497479 9.47563025,13.2 9.47563025,14.5512605 C9.47563025,15.902521 9.05882353,16.5983193 7.96302521,16.5983193 C6.86722689,16.5983193 6.45042017,15.902521 6.45042017,14.5512605 C6.45042017,13.2033613 6.86722689,12.497479 7.96302521,12.497479 Z M18.9109244,12.497479 C20.0067227,12.497479 20.4235294,13.2 20.4235294,14.5512605 C20.4235294,15.902521 20.0067227,16.5983193 18.9109244,16.5983193 C17.8151261,16.5983193 17.3983193,15.902521 17.3983193,14.5512605 C17.3983193,13.2033613 17.8151261,12.497479 18.9109244,12.497479 Z M11.6268908,12.6151261 C12.0302521,12.6151261 12.1680672,12.712605 12.1680672,13.0016807 L12.1680672,15.9865546 L12.7260504,15.9865546 L12.7260504,16.5680672 L10.692437,16.5680672 L10.692437,15.9831933 L11.3579832,15.9831933 L11.3579832,13.2336134 L10.7226891,13.2336134 L10.7226891,12.6823529 C10.9546218,12.6487395 11.3478992,12.6151261 11.6268908,12.6151261 Z M15.1193277,12.6151261 C15.5226891,12.6151261 15.6605042,12.712605 15.6605042,13.0016807 L15.6605042,15.9865546 L16.2184874,15.9865546 L16.2184874,16.5680672 L14.1848739,16.5680672 L14.1848739,15.9831933 L14.8470588,15.9831933 L14.8470588,13.2336134 L14.2151261,13.2336134 L14.2151261,12.6823529 C14.4470588,12.6487395 14.8403361,12.6151261 15.1193277,12.6151261 Z M3.63697479,12.6117647 C4.04033613,12.6117647 4.17815126,12.7092437 4.17815126,12.9983193 L4.17815126,15.9831933 L4.73613445,15.9831933 L4.73613445,16.5647059 L2.70252101,16.5647059 L2.70252101,15.9798319 L3.36470588,15.9798319 L3.36470588,13.2302521 L2.73277311,13.2302521 L2.73277311,12.6789916 C2.96470588,12.6453782 3.35798319,12.6117647 3.63697479,12.6117647 Z M7.96302521,13.102521 C7.49579832,13.102521 7.31092437,13.4588235 7.31092437,14.5512605 C7.31092437,15.6436975 7.49579832,15.9361345 7.96302521,15.9361345 C8.4302521,15.9361345 8.61512605,15.6403361 8.61512605,14.5512605 C8.61512605,13.4621849 8.4302521,13.102521 7.96302521,13.102521 Z M18.907563,13.102521 C18.4403361,13.102521 18.2554622,13.4588235 18.2554622,14.5512605 C18.2554622,15.6436975 18.4403361,15.9361345 18.907563,15.9361345 C19.3747899,15.9361345 19.5596639,15.6403361 19.5596639,14.5512605 C19.5596639,13.4621849 19.3747899,13.102521 18.907563,13.102521 Z M7.96302521,6.01344538 C9.05882353,6.01344538 9.47563025,6.71596639 9.47563025,8.06722689 C9.47563025,9.41848739 9.05882353,10.1142857 7.96302521,10.1142857 C6.86722689,10.1142857 6.45042017,9.41848739 6.45042017,8.06722689 C6.45042017,6.71932773 6.86722689,6.01344538 7.96302521,6.01344538 Z M3.65378151,6.01344538 C4.74957983,6.01344538 5.16638655,6.71596639 5.16638655,8.06722689 C5.16638655,9.41848739 4.74957983,10.1142857 3.65378151,10.1142857 C2.55798319,10.1142857 2.14117647,9.41848739 2.14117647,8.06722689 C2.14117647,6.71932773 2.55798319,6.01344538 3.65378151,6.01344538 Z M18.9109244,6.01344538 C20.0067227,6.01344538 20.4235294,6.71596639 20.4235294,8.06722689 C20.4235294,9.41848739 20.0067227,10.1142857 18.9109244,10.1142857 C17.8151261,10.1142857 17.3983193,9.41848739 17.3983193,8.06722689 C17.3983193,6.71932773 17.8151261,6.01344538 18.9109244,6.01344538 Z M11.6268908,6.13109244 C12.0302521,6.13109244 12.1680672,6.22857143 12.1680672,6.51764706 L12.1680672,9.50252101 L12.7260504,9.50252101 L12.7260504,10.0840336 L10.692437,10.0840336 L10.692437,9.49915966 L11.3579832,9.49915966 L11.3579832,6.74957983 L10.7226891,6.74957983 L10.7226891,6.19831933 C10.9546218,6.16470588 11.3478992,6.13109244 11.6268908,6.13109244 Z M15.1193277,6.13109244 C15.5226891,6.13109244 15.6605042,6.22857143 15.6605042,6.51764706 L15.6605042,9.50252101 L16.2184874,9.50252101 L16.2184874,10.0840336 L14.1848739,10.0840336 L14.1848739,9.49915966 L14.8470588,9.49915966 L14.8470588,6.74957983 L14.2151261,6.74957983 L14.2151261,6.19831933 C14.4470588,6.16470588 14.8403361,6.13109244 15.1193277,6.13109244 Z M7.96302521,6.61848739 C7.49579832,6.61848739 7.31092437,6.97478992 7.31092437,8.06722689 C7.31092437,9.15966387 7.49579832,9.45210084 7.96302521,9.45210084 C8.4302521,9.45210084 8.61512605,9.15630252 8.61512605,8.06722689 C8.61512605,6.97815126 8.4302521,6.61848739 7.96302521,6.61848739 Z M3.65378151,6.61848739 C3.18655462,6.61848739 3.00168067,6.97478992 3.00168067,8.06722689 C3.00168067,9.15966387 3.18655462,9.45210084 3.65378151,9.45210084 C4.1210084,9.45210084 4.30588235,9.15630252 4.30588235,8.06722689 C4.30588235,6.97815126 4.1210084,6.61848739 3.65378151,6.61848739 Z M18.907563,6.61848739 C18.4403361,6.61848739 18.2554622,6.97478992 18.2554622,8.06722689 C18.2554622,9.15966387 18.4403361,9.45210084 18.907563,9.45210084 C19.3747899,9.45210084 19.5596639,9.15630252 19.5596639,8.06722689 C19.5596639,6.97815126 19.3747899,6.61848739 18.907563,6.61848739 Z" id="Carpeta-encriptada_1Light"></path>
        </g>
    </g>
</svg>

<svg width="24" height="24" viewBox="0 0 24 24" xmlns="http://www.w3.org/2000/svg"><path d="M10.29.02c.83 0 1.505.68 1.505 1.516v1.2h.29c1.674-.003 10.033-.003 10.033-.003.83 0 1.506.679 1.506 1.516v13.94c0 .836-.676 1.515-1.506 1.515H1.509C.676 19.704 0 19.025 0 18.188V1.536C0 .7.676.02 1.51.02h8.78zm.002.988H1.51a.526.526 0 00-.524.528v16.656c0 .289.235.524.524.524h20.609a.527.527 0 00.52-.528V4.248a.522.522 0 00-.52-.524H11.304a.49.49 0 01-.49-.494V1.536a.527.527 0 00-.522-.528zm-2.329 11.49c1.096 0 1.513.702 1.513 2.053 0 1.352-.417 2.047-1.513 2.047-1.096 0-1.513-.695-1.513-2.047 0-1.348.417-2.054 1.513-2.054zm10.948 0c1.096 0 1.513.702 1.513 2.053 0 1.352-.417 2.047-1.513 2.047-1.096 0-1.513-.695-1.513-2.047 0-1.348.417-2.054 1.513-2.054zm-7.284.117c.403 0 .541.098.541.387v2.985h.558v.581h-2.034v-.585h.666v-2.75h-.635v-.55c.232-.034.625-.068.904-.068zm3.492 0c.404 0 .542.098.542.387v2.985h.557v.581h-2.033v-.585h.662v-2.75h-.632v-.55c.232-.034.625-.068.904-.068zm-11.482-.003c.403 0 .541.097.541.386v2.985h.558v.582H2.703v-.585h.662v-2.75h-.632v-.551c.232-.034.625-.067.904-.067zm4.326.49c-.467 0-.652.357-.652 1.45 0 1.092.185 1.384.652 1.384s.652-.296.652-1.385-.185-1.448-.652-1.448zm10.945 0c-.468 0-.653.357-.653 1.45 0 1.092.185 1.384.653 1.384.467 0 .652-.296.652-1.385s-.185-1.448-.652-1.448zM7.963 6.014c1.096 0 1.513.703 1.513 2.054s-.417 2.047-1.513 2.047c-1.096 0-1.513-.696-1.513-2.047 0-1.348.417-2.054 1.513-2.054zm-4.31 0c1.097 0 1.513.703 1.513 2.054s-.416 2.047-1.512 2.047S2.14 9.418 2.14 8.067c0-1.348.417-2.054 1.513-2.054zm15.258 0c1.096 0 1.513.703 1.513 2.054s-.417 2.047-1.513 2.047c-1.096 0-1.513-.696-1.513-2.047 0-1.348.417-2.054 1.513-2.054zm-7.284.118c.403 0 .541.098.541.387v2.985h.558v.581h-2.034v-.585h.666V6.75h-.635V6.2c.232-.034.625-.068.904-.068zm3.492 0c.404 0 .542.098.542.387v2.985h.557v.581h-2.033v-.585h.662V6.75h-.632V6.2c.232-.034.625-.068.904-.068zm-7.156.487c-.467 0-.652.357-.652 1.45 0 1.092.185 1.384.652 1.384s.652-.296.652-1.385-.185-1.449-.652-1.449zm-4.31 0c-.466 0-.651.357-.651 1.45 0 1.092.185 1.384.652 1.384s.652-.296.652-1.385-.185-1.449-.652-1.449zm15.255 0c-.468 0-.653.357-.653 1.45 0 1.092.185 1.384.653 1.384.467 0 .652-.296.652-1.385s-.185-1.449-.652-1.449z" fill="#5CB615" fill-rule="nonzero"/></svg>
